src/assets/icons/tiktokIcon.svg

<svg xmlns="http://www.w3.org/2000/svg" width="20" height="21" viewBox="0 0 20 21" fill="none">
<g clip-path="url(#clip0_1178_717)">
<path d="M14.2271 0.5H10.8565V14.1232C10.8565 15.7464 9.56015 17.0797 7.94688 17.0797C6.3336 17.0797 5.03723 15.7464 5.03723 14.1232C5.03723 12.529 6.3048 11.2246 7.86047 11.1667V7.74639C4.43226 7.80433 1.66666 10.6159 1.66666 14.1232C1.66666 17.6594 4.48987 20.5 7.9757 20.5C11.4615 20.5 14.2847 17.6304 14.2847 14.1232V7.13767C15.5523 8.06522 17.1079 8.61594 18.75 8.64495V5.22464C16.2149 5.13768 14.2271 3.05072 14.2271 0.5Z" fill="white"/>
</g>
<defs>
<clipPath id="clip0_1178_717">
<rect width="20" height="20" fill="white" transform="translate(0 0.5)"/>
</clipPath>
</defs>
</svg>

<svg xmlns="http://www.w3.org/2000/svg" width="20" height="21" fill="none"><g clip-path="url(#a)"><path fill="#fff" d="M14.227.5h-3.37v13.623c0 1.623-1.297 2.957-2.91 2.957s-2.91-1.334-2.91-2.957c0-1.594 1.268-2.898 2.823-2.956v-3.42c-3.428.057-6.193 2.869-6.193 6.376 0 3.536 2.823 6.377 6.309 6.377 3.485 0 6.309-2.87 6.309-6.377V7.138a7.8 7.8 0 0 0 4.465 1.507v-3.42C16.215 5.138 14.227 3.05 14.227.5"/></g><defs><clipPath id="a"><path fill="#fff" d="M0 .5h20v20H0z"/></clipPath></defs></svg>
